src/places/scalable/purple-folder-vault.svg

<svg id="svg2131" width="64" height="64" version="1.1" viewBox="0 0 16.933 16.933" xmlns="http://www.w3.org/2000/svg">
 <defs id="defs2111">
  <filter id="filter2347-3" x="-.024545776" y="-.029998631" width="1.0490916" height="1.0599973" color-interpolation-filters="sRGB">
   <feGaussianBlur id="feGaussianBlur2100" stdDeviation="0.14938518"/>
  </filter>
  <filter id="filter2161-7" x="-.024009103" y="-.03084203" width="1.0480182" height="1.0616841" color-interpolation-filters="sRGB">
   <feGaussianBlur id="feGaussianBlur2103" stdDeviation="0.146119"/>
  </filter>
  <linearGradient id="linearGradient2575" x1="26.221" x2="26.221" y1="14.474" y2="3.3043" gradientUnits="userSpaceOnUse">
   <stop id="stop2106" stop-color="#2e3440" stop-opacity=".15" offset="0"/>
   <stop id="stop2108" stop-color="#2e3440" stop-opacity="0" offset="1"/>
  </linearGradient>
 </defs>
 <g id="g2129" transform="translate(-17.964 -.21096)" stroke-linecap="round" stroke-linejoin="round">
  <g id="g2119" stroke-width=".16404">
   <path id="path2113" transform="matrix(1.01 0 0 1.01 17.858 -.15638)" d="m2.0282 2.7764h4.6989c0.58902 0 0.64003 1.0583 1.3149 1.0583h6.9051c0.4674 0 0.84368 0.37628 0.84368 0.84368v9.2054c0 0.4674-0.37628 0.84368-0.84368 0.84368h-12.919c-0.4674 0-0.84368-0.37628-0.84368-0.84368v-10.264c0-0.4674 0.37628-0.84368 0.84368-0.84368z" fill="#2e3440" filter="url(#filter2347-3)" opacity=".15"/>
   <path id="path2115" d="m19.971 2.6366h4.6989c0.58902 0 0.64003 1.0583 1.3149 1.0583h6.9051c0.4674 0 0.84368 0.37628 0.84368 0.84368v9.2054c0 0.4674-0.37628 0.84368-0.84368 0.84368h-12.919c-0.4674 0-0.84368-0.37628-0.84368-0.84368v-10.264c0-0.4674 0.37628-0.84368 0.84368-0.84368z" fill="#b48ead"/>
   <path id="path2117" d="m19.971 2.6366h4.6989c0.58902 0 0.64003 1.0583 1.3149 1.0583h6.9051c0.4674 0 0.84368 0.37628 0.84368 0.84368v9.2054c0 0.4674-0.37628 0.84368-0.84368 0.84368h-12.919c-0.4674 0-0.84368-0.37628-0.84368-0.84368v-10.264c0-0.4674 0.37628-0.84368 0.84368-0.84368z" fill="#2e3440" opacity=".15"/>
  </g>
  <g id="g2127" stroke-width=".16365">
   <path id="path2121" d="m19.971 3.8487h4.6989c0.58902 0 0.64003-1.0533 1.3149-1.0533h6.9051c0.4674 0 0.84368 0.3745 0.84368 0.83969v9.691c0 0.46519-0.37628 0.83969-0.84368 0.83969h-12.919c-0.4674 0-0.84368-0.3745-0.84368-0.83969v-8.6377c0-0.46519 0.37628-0.83969 0.84368-0.83969z" fill="#2e3440" filter="url(#filter2161-7)" opacity=".15"/>
   <path id="path2123" d="m19.971 4.2271h4.6989c0.58902 0 0.64003-1.0533 1.3149-1.0533h6.9051c0.4674 0 0.84368 0.3745 0.84368 0.83969v9.691c0 0.46519-0.37628 0.83969-0.84368 0.83969h-12.919c-0.4674 0-0.84368-0.3745-0.84368-0.83969v-8.6377c0-0.46519 0.37628-0.83969 0.84368-0.83969z" fill="#b48ead"/>
   <path id="path2125" d="m19.971 4.2271h4.6989c0.58902 0 0.64003-1.0533 1.3149-1.0533h6.9051c0.4674 0 0.84368 0.3745 0.84368 0.83969v9.691c0 0.46519-0.37628 0.83969-0.84368 0.83969h-12.919c-0.4674 0-0.84368-0.3745-0.84368-0.83969v-8.6377c0-0.46519 0.37628-0.83969 0.84368-0.83969z" fill="url(#linearGradient2575)"/>
  </g>
 </g>
 <g id="g1076" transform="translate(-.00014058125 .52353397)" fill="#2e3440" stroke-linecap="round" stroke-linejoin="round">
  <path id="path304" d="m8.4664763 5.599333a2.8726252 2.8726252 0 0 0-2.872625 2.8726253 2.8726252 2.8726252 0 0 0 2.872625 2.8726247 2.8726252 2.8726252 0 0 0 2.8726247-2.8726247 2.8726252 2.8726252 0 0 0-2.8726247-2.8726253zm-0.03366 0.359078a2.513547 2.513547 0 0 1 0.03366 0 2.513547 2.513547 0 0 1 2.5135467 2.5135473 2.513547 2.513547 0 0 1-2.5135467 2.5135467 2.513547 2.513547 0 0 1-2.513547-2.5135467 2.513547 2.513547 0 0 1 2.479865-2.5135473z" stroke-width=".411001" style="fill:#010202;opacity:.15"/>
  <path id="path306" d="m8.1073982 6.676567c-0.198929 0-0.359078 0.160149-0.359078 0.3590775v0.35908l0.718156 0.359078-0.718156 0.359078v1.7953898c0 0.1989297 0.160149 0.3590787 0.359078 0.3590787h0.718156c0.19893 0 0.359078-0.160149 0.359078-0.3590787v-0.359078l-0.718156-0.359078 0.718156-0.359078v-1.7953918c0-0.1989285-0.160148-0.3590775-0.359078-0.3590775z" stroke-width=".359652" style="fill:#000000;opacity:.15"/>
 </g>
</svg>

<?xml version="1.0" encoding="UTF-8" standalone="no"?>
<svg
   width="64"
   height="64"
   version="1.1"
   viewBox="0 0 16.933 16.933"
   id="svg2131"
   xmlns="http://www.w3.org/2000/svg"
   xmlns:svg="http://www.w3.org/2000/svg">
  <defs
     id="defs2111">
    <filter
       id="filter2347-3"
       x="-0.024545776"
       y="-0.029998631"
       width="1.0490916"
       height="1.0599973"
       color-interpolation-filters="sRGB">
      <feGaussianBlur
         stdDeviation="0.14938518"
         id="feGaussianBlur2100" />
    </filter>
    <filter
       id="filter2161-7"
       x="-0.024009103"
       y="-0.03084203"
       width="1.0480182"
       height="1.0616841"
       color-interpolation-filters="sRGB">
      <feGaussianBlur
         stdDeviation="0.146119"
         id="feGaussianBlur2103" />
    </filter>
    <linearGradient
       id="linearGradient2575"
       x1="26.221"
       x2="26.221"
       y1="14.474"
       y2="3.3043"
       gradientUnits="userSpaceOnUse">
      <stop
         stop-color="#2e3440"
         stop-opacity=".15"
         offset="0"
         id="stop2106" />
      <stop
         stop-color="#2e3440"
         stop-opacity="0"
         offset="1"
         id="stop2108" />
    </linearGradient>
  </defs>
  <g
     transform="translate(-17.964 -.21096)"
     stroke-linecap="round"
     stroke-linejoin="round"
     id="g2129">
    <g
       stroke-width=".16404"
       id="g2119">
      <path
         transform="matrix(1.01 0 0 1.01 17.858 -.15638)"
         d="m2.0282 2.7764h4.6989c0.58902 0 0.64003 1.0583 1.3149 1.0583h6.9051c0.4674 0 0.84368 0.37628 0.84368 0.84368v9.2054c0 0.4674-0.37628 0.84368-0.84368 0.84368h-12.919c-0.4674 0-0.84368-0.37628-0.84368-0.84368v-10.264c0-0.4674 0.37628-0.84368 0.84368-0.84368z"
         fill="#2e3440"
         filter="url(#filter2347-3)"
         opacity=".15"
         id="path2113" />
      <path
         d="m19.971 2.6366h4.6989c0.58902 0 0.64003 1.0583 1.3149 1.0583h6.9051c0.4674 0 0.84368 0.37628 0.84368 0.84368v9.2054c0 0.4674-0.37628 0.84368-0.84368 0.84368h-12.919c-0.4674 0-0.84368-0.37628-0.84368-0.84368v-10.264c0-0.4674 0.37628-0.84368 0.84368-0.84368z"
         fill="#b48ead"
         id="path2115" />
      <path
         d="m19.971 2.6366h4.6989c0.58902 0 0.64003 1.0583 1.3149 1.0583h6.9051c0.4674 0 0.84368 0.37628 0.84368 0.84368v9.2054c0 0.4674-0.37628 0.84368-0.84368 0.84368h-12.919c-0.4674 0-0.84368-0.37628-0.84368-0.84368v-10.264c0-0.4674 0.37628-0.84368 0.84368-0.84368z"
         fill="#2e3440"
         opacity=".15"
         id="path2117" />
    </g>
    <g
       stroke-width=".16365"
       id="g2127">
      <path
         d="m19.971 3.8487h4.6989c0.58902 0 0.64003-1.0533 1.3149-1.0533h6.9051c0.4674 0 0.84368 0.3745 0.84368 0.83969v9.691c0 0.46519-0.37628 0.83969-0.84368 0.83969h-12.919c-0.4674 0-0.84368-0.3745-0.84368-0.83969v-8.6377c0-0.46519 0.37628-0.83969 0.84368-0.83969z"
         fill="#2e3440"
         filter="url(#filter2161-7)"
         opacity=".15"
         id="path2121" />
      <path
         d="m19.971 4.2271h4.6989c0.58902 0 0.64003-1.0533 1.3149-1.0533h6.9051c0.4674 0 0.84368 0.3745 0.84368 0.83969v9.691c0 0.46519-0.37628 0.83969-0.84368 0.83969h-12.919c-0.4674 0-0.84368-0.3745-0.84368-0.83969v-8.6377c0-0.46519 0.37628-0.83969 0.84368-0.83969z"
         fill="#b48ead"
         id="path2123" />
      <path
         d="m19.971 4.2271h4.6989c0.58902 0 0.64003-1.0533 1.3149-1.0533h6.9051c0.4674 0 0.84368 0.3745 0.84368 0.83969v9.691c0 0.46519-0.37628 0.83969-0.84368 0.83969h-12.919c-0.4674 0-0.84368-0.3745-0.84368-0.83969v-8.6377c0-0.46519 0.37628-0.83969 0.84368-0.83969z"
         fill="url(#linearGradient2575)"
         id="path2125" />
    </g>
  </g>
  <g
     id="g1076"
     transform="translate(-1.4058125e-4,0.52353397)">
    <path
       d="M 8.4664763,5.599333 A 2.8726252,2.8726252 0 0 0 5.5938513,8.4719583 2.8726252,2.8726252 0 0 0 8.4664763,11.344583 2.8726252,2.8726252 0 0 0 11.339101,8.4719583 2.8726252,2.8726252 0 0 0 8.4664763,5.599333 Z m -0.03366,0.359078 a 2.513547,2.513547 0 0 1 0.03366,0 A 2.513547,2.513547 0 0 1 10.980023,8.4719583 2.513547,2.513547 0 0 1 8.4664763,10.985505 2.513547,2.513547 0 0 1 5.9529293,8.4719583 2.513547,2.513547 0 0 1 8.4327943,5.958411 Z"
       fill="#2e3440"
       stroke-linecap="round"
       stroke-linejoin="round"
       stroke-width="0.411001"
       id="path304"
       style="opacity:0.15;fill:#010202;fill-opacity:1" />
    <path
       d="m 8.1073982,6.676567 c -0.198929,0 -0.359078,0.160149 -0.359078,0.3590775 v 0.35908 l 0.718156,0.359078 -0.718156,0.359078 v 1.7953898 c 0,0.1989297 0.160149,0.3590787 0.359078,0.3590787 h 0.718156 c 0.19893,0 0.359078,-0.160149 0.359078,-0.3590787 v -0.359078 l -0.718156,-0.359078 0.718156,-0.359078 V 7.0356445 c 0,-0.1989285 -0.160148,-0.3590775 -0.359078,-0.3590775 z"
       fill="#2e3440"
       stroke-linecap="round"
       stroke-linejoin="round"
       stroke-width="0.359652"
       id="path306"
       style="opacity:0.15;fill:#000000;fill-opacity:1" />
  </g>
</svg>
